X: 414
T:Vous l'arez
N: Derived from Jos3013-Vous_larez.krn
C: Josquin des Prez
%%abc-version 2.0
%%abcx-abcm2ps-target-version 5.9.1 (29 Sep 2008)
%%abc-creator hum2abc beta
%%abcx-conversion-date 2019/02/12 16:15:55
%%abc-edited-by Jesse Rodin
%%abc-edited-by Will Watson 09/09/2011
%%abcx-initial-encoding-date 2011/09/09/
%%humdrum-veritas 3417828401
%%humdrum-veritas-data 4096144707
%%linebreak <none>
%%barnumbers 0
L: 1/4
M: 2/1
Q: 1/2=120
V: 1 clef=treble
V: 2 clef=treble-8
V: 3 clef=treble-8
V: 4 clef=treble-8
V: 5 clef=bass
V: 6 clef=bass
K: F
[V:1] z8 | 
[V:2] z8 | 
[V:3] d4d4 | 
[V:4] z4d4 | 
[V:5] z8 | 
[V:6] z8 | 
[V:1] D4D4 | 
[V:2] z8 | 
[V:3] G4d4- | 
[V:4] d4G4 | 
[V:5] z8 | 
[V:6] z8 | 
[V:1] G,4G3F | 
[V:2] z8 | 
[V:3] d2c2B2A2 | 
[V:4] d6c2 | 
[V:5] z8 | 
[V:6] z8 | 
[V:1] E2D2^C4 | 
[V:2] z8 | 
[V:3] G2F2E4 | 
[V:4] B2A2G4 | 
[V:5] z8 | 
[V:6] z8 | 
[V:1] D8 | 
[V:2] z8 | 
[V:3] D8 | 
[V:4] A8 | 
[V:5] z4A,4 | 
[V:6] A,4A,4 | 
[V:1] z8 | 
[V:2] A4A4 | 
[V:3] z8 | 
[V:4] z8 | 
[V:5] A,4D,4 | 
[V:6] D,4A,4- | 
[V:1] z8 | 
[V:2] D4d3c | 
[V:3] z8 | 
[V:4] z8 | 
[V:5] A,6G,2 | 
[V:6] A,2G,2F,2E,2 | 
[V:1] z8 | 
[V:2] B2A2G4 | 
[V:3] z8 | 
[V:4] z8 | 
[V:5] F,2E,2D,4 | 
[V:6] D,3C,B,,4 | 
[V:1] z4A4 | 
[V:2] A8 | 
[V:3] z4C4 | 
[V:4] z4c4 | 
[V:5] E,8 | 
[V:6] A,,8 | 
[V:1] B4B4 | 
[V:2] z8 | 
[V:3] G4G4 | 
[V:4] B4G4 | 
[V:5] z8 | 
[V:6] z8 | 
[V:1] A4A4 | 
[V:2] z8 | 
[V:3] F4D3E | 
[V:4] A4d4 | 
[V:5] z8 | 
[V:6] z8 | 
[V:1] A2B2G3A | 
[V:2] z8 | 
[V:3] F2G2C4 | 
[V:4] c2B2c4 | 
[V:5] z8 | 
[V:6] z8 | 
[V:1] B8 | 
[V:2] z4d4 | 
[V:3] G4z2G2 | 
[V:4] B8 | 
[V:5] z4G,4 | 
[V:6] z4G,,4 | 
[V:1] z8 | 
[V:2] f4f4 | 
[V:3] A4A4 | 
[V:4] z8 | 
[V:5] F,4D,4 | 
[V:6] D,4D,4 | 
[V:1] z8 | 
[V:2] e4e4 | 
[V:3] c4c4 | 
[V:4] z8 | 
[V:5] E,4A,4 | 
[V:6] C,4A,,3B,, | 
[V:1] z8 | 
[V:2] e2f2d3e | 
[V:3] c2A2B4 | 
[V:4] z8 | 
[V:5] G,2F,2G,4 | 
[V:6] C,2D,2G,,4 | 
[V:1] z4A4 | 
[V:2] f8 | 
[V:3] A2d2d4 | 
[V:4] z4d4 | 
[V:5] F,8 | 
[V:6] D,8 | 
[V:1] B4B4 | 
[V:2] z2d2g4 | 
[V:3] G4z2G2 | 
[V:4] d4G4 | 
[V:5] z8 | 
[V:6] z2G,2G,4 | 
[V:1] A4A2B2- | 
[V:2] f4z2f2 | 
[V:3] A4D4 | 
[V:4] d6d2 | 
[V:5] z8 | 
[V:6] D,4z2B,,2 | 
[V:1] BAA4G2 | 
[V:2] f2f2d3e | 
[V:3] z4z2d2 | 
[V:4] c4B4 | 
[V:5] z8 | 
[V:6] F,2F,2G,4 | 
[V:1] A8- | 
[V:2] f8 | 
[V:3] d4A4 | 
[V:4] A8 | 
[V:5] z4A,4 | 
[V:6] D,8 | 
[V:1] A8 | 
[V:2] z2A2d4 | 
[V:3] z2f2f4 | 
[V:4] z8 | 
[V:5] A,4D,4 | 
[V:6] z2D,2D,4 | 
[V:1] z8 | 
[V:2] c4z2c2 | 
[V:3] e2e2e2f2- | 
[V:4] z8 | 
[V:5] A,6A,2 | 
[V:6] A,,4z2A,,2 | 
[V:1] z8 | 
[V:2] c2c2B4 | 
[V:3] f2e2d4 | 
[V:4] z8 | 
[V:5] G,4F,4 | 
[V:6] C,2C,2D,4 | 
[V:1] z2c2c4 | 
[V:2] A8 | 
[V:3] c8 | 
[V:4] z4c4 | 
[V:5] E,8 | 
[V:6] A,,8 | 
[V:1] G4z2G2 | 
[V:2] z4z2G2 | 
[V:3] z4z2g2 | 
[V:4] c4G4 | 
[V:5] z8 | 
[V:6] z2C,2C,4 | 
[V:1] B3BB2A2- | 
[V:2] G4F4 | 
[V:3] g2d2f3e | 
[V:4] d6c2 | 
[V:5] z8 | 
[V:6] G,,A,,B,,C,D,E,F,2 | 
[V:1] AGG4^F2 | 
[V:2] z4z2A2 | 
[V:3] d2c2d4- | 
[V:4] B2G2A4 | 
[V:5] z8 | 
[V:6] G,2E,2D,4 | 
[V:1] G4z2B2 | 
[V:2] B4G4 | 
[V:3] d4z2d2 | 
[V:4] G8 | 
[V:5] z4G,4 | 
[V:6] G,,8 | 
[V:1] B4A4 | 
[V:2] z2d2d4- | 
[V:3] g4f2d2 | 
[V:4] z8 | 
[V:5] G,4D,4 | 
[V:6] z4z2D,2 | 
[V:1] z8 | 
[V:2] d2A2c3B | 
[V:3] f2f2f2e2- | 
[V:4] z8 | 
[V:5] A,6G,2 | 
[V:6] D,4A,,2C,2 | 
[V:1] z8 | 
[V:2] A2G2A4 | 
[V:3] edd4^c2 | 
[V:4] z8 | 
[V:5] F,2D,2E,4 | 
[V:6] D,2B,,2A,,4 | 
[V:1] z4A4 | 
[V:2] z2F2F2F2 | 
[V:3] d4z2d2 | 
[V:4] z4d4 | 
[V:5] D,8 | 
[V:6] D,8 | 
[V:1] B4B4 | 
[V:2] G4G4 | 
[V:3] B2G2d4- | 
[V:4] d4d4 | 
[V:5] z8 | 
[V:6] z2G,,2G,,2G,,2 | 
[V:1] A6c2 | 
[V:2] F2D2A4 | 
[V:3] d2d2d2c2 | 
[V:4] f6e2 | 
[V:5] z8 | 
[V:6] D,6A,,2 | 
[V:1] B2A2G4 | 
[V:2] F4z2d2 | 
[V:3] f3ed4 | 
[V:4] d2c2B4 | 
[V:5] z8 | 
[V:6] B,,2F,2G,4 | 
[V:1] F8 | 
[V:2] d2d2f4- | 
[V:3] z2D2D2D2 | 
[V:4] A8 | 
[V:5] z4A,4 | 
[V:6] D,4z2D,2 | 
[V:1] z8 | 
[V:2] f2edc4 | 
[V:3] F4z2A2 | 
[V:4] z8 | 
[V:5] A,4A,4 | 
[V:6] D,2D,2F,4- | 
[V:1] z8 | 
[V:2] z4z2g2 | 
[V:3] A2A2c2G2 | 
[V:4] z8 | 
[V:5] C6B,2 | 
[V:6] F,2E,D,C,2E,2 | 
[V:1] z8 | 
[V:2] f2e2d4 | 
[V:3] c2c2B3A | 
[V:4] z8 | 
[V:5] A,2G,2F,4 | 
[V:6] F,2C,2D,4 | 
[V:1] z2A2A2A2 | 
[V:2] c8 | 
[V:3] A4z2A2 | 
[V:4] z4c4 | 
[V:5] E,8 | 
[V:6] A,,8 | 
[V:1] c6BA | 
[V:2] z4z2c2 | 
[V:3] A2A2c4- | 
[V:4] c4c4 | 
[V:5] z8 | 
[V:6] z2A,,2A,,2A,,2 | 
[V:1] G6B2 | 
[V:2] c2c2g2g2 | 
[V:3] c2BAG2G2 | 
[V:4] _e6d2 | 
[V:5] z8 | 
[V:6] C,6G,,2 | 
[V:1] A2G2^FGAF | 
[V:2] f2d2f3d | 
[V:3] A2B2F4 | 
[V:4] c2B2A4 | 
[V:5] z8 | 
[V:6] F,2G,2D,4 | 
[V:1] G8- | 
[V:2] d4z2c2 | 
[V:3] B4z2_E2 | 
[V:4] G8- | 
[V:5] z4G,4 | 
[V:6] G,,4z2C,2 | 
[V:1] G8- | 
[V:2] d2d2cd_ec | 
[V:3] D2D2_E4 | 
[V:4] G8- | 
[V:5] G,4G,4 | 
[V:6] B,,2B,,2C,4 | 
[V:1] G8- | 
[V:2] d4z2c2 | 
[V:3] D4z2_E2 | 
[V:4] G8- | 
[V:5] B,6A,2 | 
[V:6] G,,4z2C,2 | 
[V:1] G8 | 
[V:2] d2d2cd_ec | 
[V:3] D2D2G3A | 
[V:4] G8 | 
[V:5] G,2F,2_E,4 | 
[V:6] B,,2B,,2C,4 | 
[V:1] G8 |]  
[V:2] d8 |]  
[V:3] B8 |]  
[V:4] G8 |]  
[V:5] D,8 |]  
[V:6] G,,8 |]  



